X: 31536
T: Paddy's Trip To Scotland
R: reel
M: 4/4
K: Dmajor
|:dA A2 BAGF|GA (3Bcd cABc|d2ed cABc|dfed cABc|
dA A2 BAGF|GA (3Bcd cABc|d2ed cABc|1 dfec d2dc:|2 dfec d2dB||
|:Adfd Adfd|g3f edcB|Acec Acec|f3e dcBc|
Adfd Adfd|g3f efge|eA A2 BABc|1 dfec d2dB:|2 dfec dABc||

